src/icons/svg/github.svg

<svg width="20" height="20" fill="none" xmlns="http://www.w3.org/2000/svg"><path d="M8.967 1.114a8.76 8.76 0 0 0-3.831 1.424c-1.74 1.167-2.957 2.774-3.62 4.779a9.44 9.44 0 0 0 .007 5.85c.684 2.058 2.069 3.82 3.876 4.929.451.277 1.199.638 1.593.77.274.091.324.099.445.066a.432.432 0 0 0 .326-.317c.023-.084.028-.418.014-.971a33.784 33.784 0 0 0-.027-.844c-.003 0-.155.022-.336.05-.816.123-1.472.012-1.98-.333-.32-.217-.528-.478-.705-.88-.266-.609-.578-1.033-.915-1.245a2.04 2.04 0 0 1-.261-.203c-.384-.363.238-.523.84-.217.273.138.585.44.79.761.227.359.369.523.59.686.354.26.791.372 1.236.315.248-.031.79-.189.792-.23 0-.011.021-.119.047-.24a2.2 2.2 0 0 1 .366-.809.77.77 0 0 0 .113-.17 4.28 4.28 0 0 0-.31-.05 7.919 7.919 0 0 1-.671-.136c-1.713-.428-2.648-1.431-2.966-3.182-.047-.257-.06-.502-.06-1.067 0-.692.005-.752.09-1.067.11-.41.396-.995.624-1.277l.17-.211-.07-.272a3.453 3.453 0 0 1-.068-1.23c.045-.334.18-.845.244-.921.059-.072.501-.023.872.096.354.113.871.37 1.287.638l.286.185.348-.078c.723-.164 1.033-.196 1.897-.196.864 0 1.174.032 1.896.195l.346.078.321-.202c.742-.467 1.377-.718 1.848-.731.265-.007.271-.005.315.085.025.051.083.238.131.417.074.278.086.398.089.841.003.439-.008.56-.073.806l-.076.29.168.209c.231.286.518.872.626 1.278.084.313.089.378.089 1.067.001.787-.039 1.113-.202 1.683-.116.406-.403.97-.654 1.286-.594.745-1.602 1.24-2.882 1.415l-.306.042.118.137c.065.075.17.245.233.377.218.45.225.519.234 2.267.01 1.719.01 1.723.205 1.821.189.095.265.093.599-.018.383-.126 1.234-.543 1.658-.811a9.131 9.131 0 0 0 2.437-2.268 9.327 9.327 0 0 0 1.546-7.831 9.251 9.251 0 0 0-1.655-3.424c-.32-.42-1.084-1.196-1.511-1.534a8.916 8.916 0 0 0-4.2-1.844c-.475-.074-1.856-.094-2.333-.034" fill="#19191C" fill-rule="evenodd"/></svg>

<svg width="20" height="20" viewBox="0 0 20 20" fill="none" xmlns="http://www.w3.org/2000/svg"><path d="M8.967 1.114 C 7.562 1.293,6.284 1.767,5.136 2.538 C 3.396 3.705,2.179 5.312,1.516 7.317 C 0.899 9.185,0.901 11.297,1.523 13.167 C 2.207 15.225,3.592 16.987,5.399 18.096 C 5.850 18.373,6.598 18.734,6.992 18.866 C 7.266 18.957,7.316 18.965,7.437 18.932 C 7.608 18.886,7.717 18.780,7.763 18.615 C 7.786 18.531,7.791 18.197,7.777 17.644 C 7.765 17.180,7.753 16.800,7.750 16.800 C 7.747 16.800,7.595 16.822,7.414 16.850 C 6.598 16.973,5.942 16.862,5.434 16.517 C 5.114 16.300,4.906 16.039,4.729 15.637 C 4.463 15.028,4.151 14.604,3.814 14.392 C 3.739 14.345,3.622 14.254,3.553 14.189 C 3.169 13.826,3.791 13.666,4.393 13.972 C 4.666 14.110,4.978 14.412,5.183 14.733 C 5.410 15.092,5.552 15.256,5.773 15.419 C 6.127 15.679,6.564 15.791,7.009 15.734 C 7.257 15.703,7.799 15.545,7.801 15.504 C 7.801 15.493,7.822 15.385,7.848 15.264 C 7.906 14.989,8.053 14.665,8.214 14.455 C 8.282 14.366,8.333 14.290,8.327 14.285 C 8.321 14.281,8.182 14.258,8.017 14.235 C 7.852 14.211,7.550 14.151,7.346 14.099 C 5.633 13.671,4.698 12.668,4.380 10.917 C 4.333 10.660,4.320 10.415,4.320 9.850 C 4.320 9.158,4.325 9.098,4.410 8.783 C 4.520 8.373,4.806 7.788,5.034 7.506 L 5.204 7.295 5.134 7.023 C 5.040 6.655,5.013 6.177,5.066 5.793 C 5.111 5.459,5.246 4.948,5.310 4.872 C 5.369 4.800,5.811 4.849,6.182 4.968 C 6.536 5.081,7.053 5.338,7.469 5.606 L 7.755 5.791 8.103 5.713 C 8.826 5.549,9.136 5.517,10.000 5.517 C 10.864 5.517,11.174 5.549,11.896 5.712 L 12.242 5.790 12.563 5.588 C 13.305 5.121,13.940 4.870,14.411 4.857 C 14.676 4.850,14.682 4.852,14.726 4.942 C 14.751 4.993,14.809 5.180,14.857 5.359 C 14.931 5.637,14.943 5.757,14.946 6.200 C 14.949 6.639,14.938 6.760,14.873 7.006 L 14.797 7.296 14.965 7.505 C 15.196 7.791,15.483 8.377,15.591 8.783 C 15.675 9.096,15.680 9.161,15.680 9.850 C 15.681 10.637,15.641 10.963,15.478 11.533 C 15.362 11.939,15.075 12.503,14.824 12.819 C 14.230 13.564,13.222 14.059,11.942 14.234 L 11.636 14.276 11.754 14.413 C 11.819 14.488,11.924 14.658,11.987 14.790 C 12.205 15.240,12.212 15.309,12.221 17.057 C 12.231 18.776,12.231 18.780,12.426 18.878 C 12.615 18.973,12.691 18.971,13.025 18.860 C 13.408 18.734,14.259 18.317,14.683 18.049 C 15.618 17.458,16.440 16.692,17.120 15.781 C 18.778 13.557,19.349 10.667,18.666 7.950 C 18.349 6.690,17.812 5.577,17.011 4.526 C 16.691 4.106,15.927 3.330,15.500 2.992 C 14.263 2.012,12.844 1.389,11.300 1.148 C 10.825 1.074,9.444 1.054,8.967 1.114 " fill="#19191C" stroke="none" fill-rule="evenodd"></path></svg>
